public/img/events/witches-festival.svg

<svg width="200" height="200" viewBox="0 0 200 200" fill="none" xmlns="http://www.w3.org/2000/svg">
<g clip-path="url(#clip0_501_29885)">
<path fill-rule="evenodd" clip-rule="evenodd" d="M100.67 52.861C74.6861 52.861 53.6217 73.9145 53.6217 99.8852C53.6217 125.856 74.6861 146.91 100.67 146.91C126.654 146.91 147.719 125.856 147.719 99.8852C147.719 73.9145 126.654 52.861 100.67 52.861ZM51.8999 99.8852C51.8999 72.964 73.7351 51.1401 100.67 51.1401C127.605 51.1401 149.441 72.964 149.441 99.8852C149.441 126.806 127.605 148.63 100.67 148.63C73.7351 148.63 51.8999 126.806 51.8999 99.8852Z" fill="black"/>
<path fill-rule="evenodd" clip-rule="evenodd" d="M101.686 0.4531L87.1281 53.7673L85.467 53.3142L100.025 0L101.686 0.4531Z" fill="black"/>
<path fill-rule="evenodd" clip-rule="evenodd" d="M101.311 0L115.869 53.3142L114.208 53.7673L99.6501 0.453099L101.311 0Z" fill="black"/>
<path fill-rule="evenodd" clip-rule="evenodd" d="M99.6501 198.741L114.208 145.427L115.869 145.88L101.311 199.194L99.6501 198.741Z" fill="black"/>
<path fill-rule="evenodd" clip-rule="evenodd" d="M100.025 199.194L85.467 145.88L87.1281 145.427L101.686 198.741L100.025 199.194Z" fill="black"/>
<path fill-rule="evenodd" clip-rule="evenodd" d="M1.95199 96.8825L55.2938 111.433L54.8404 113.093L1.49866 98.5427L1.95199 96.8825Z" fill="black"/>
<path fill-rule="evenodd" clip-rule="evenodd" d="M1.49866 97.2568L54.8404 82.7064L55.2938 84.3666L1.95199 98.917L1.49866 97.2568Z" fill="black"/>
<path fill-rule="evenodd" clip-rule="evenodd" d="M199.546 102.608L146.204 88.0623L146.658 86.402L199.999 100.948L199.546 102.608Z" fill="black"/>
<path fill-rule="evenodd" clip-rule="evenodd" d="M199.999 102.238L146.658 116.785L146.204 115.124L199.546 100.578L199.999 102.238Z" fill="black"/>
<path fill-rule="evenodd" clip-rule="evenodd" d="M33.8221 26.9799L58.8788 76.2413L57.3439 77.0212L32.2872 27.7598L33.8221 26.9799Z" fill="black"/>
<path fill-rule="evenodd" clip-rule="evenodd" d="M33.2419 26.8939L79.86 56.6099L78.9341 58.0609L32.316 28.3448L33.2419 26.8939Z" fill="black"/>
<path fill-rule="evenodd" clip-rule="evenodd" d="M176.077 35.4755L126.308 59.5512L125.558 58.0022L175.327 33.9265L176.077 35.4755Z" fill="black"/>
<path fill-rule="evenodd" clip-rule="evenodd" d="M176.174 34.8981L145.534 80.9027L144.101 79.9491L174.74 33.9445L176.174 34.8981Z" fill="black"/>
<path fill-rule="evenodd" clip-rule="evenodd" d="M168.287 172.295L141.879 123.744L143.392 122.922L169.8 171.473L168.287 172.295Z" fill="black"/>
<path fill-rule="evenodd" clip-rule="evenodd" d="M168.872 172.364L121.448 143.952L122.334 142.476L169.757 170.888L168.872 172.364Z" fill="black"/>
<path fill-rule="evenodd" clip-rule="evenodd" d="M22.434 161.192L73.0811 139.014L73.7721 140.59L23.1249 162.769L22.434 161.192Z" fill="black"/>
<path fill-rule="evenodd" clip-rule="evenodd" d="M22.3186 161.765L54.6715 116.952L56.0677 117.959L23.7149 162.772L22.3186 161.765Z" fill="black"/>
<path fill-rule="evenodd" clip-rule="evenodd" d="M99.8867 1.83562C45.6726 1.83562 1.72181 45.8101 1.72181 100.057C1.72181 154.305 45.6726 198.279 99.8867 198.279C154.101 198.279 198.052 154.305 198.052 100.057C198.052 45.8101 154.101 1.83562 99.8867 1.83562ZM0 100.057C0 44.8614 44.7199 0.1147 99.8867 0.1147C155.053 0.1147 199.773 44.8614 199.773 100.057C199.773 155.253 155.053 200 99.8867 200C44.7199 200 0 155.253 0 100.057Z" fill="black"/>
<path d="M55.5584 102.97C62.4456 99.2098 69.3372 95.4539 76.2244 91.6937C82.5435 88.2476 89.0003 84.298 96.2276 83.1665C101.862 82.2846 107.536 83.6914 112.804 85.6231C118.357 87.6624 123.652 90.3342 129.175 92.4595C134.452 94.4859 140.112 96.0519 145.816 95.5701C146.548 95.5099 147.279 95.4109 148.003 95.2947C147.727 94.6408 147.452 93.9825 147.172 93.3286C141.847 97.2308 136.497 101.107 130.892 104.605C125.55 107.939 119.954 110.968 113.992 113.037C108.349 114.995 102.405 116.045 96.4213 115.567C89.547 115.017 82.9998 112.444 76.6506 109.918C69.9786 107.264 63.3152 104.601 56.6431 101.942C55.8167 101.611 54.9902 101.284 54.1637 100.952C53.6256 100.737 52.98 101.189 52.8379 101.705C52.67 102.316 53.0488 102.811 53.5912 103.03C60.3364 105.719 67.0816 108.408 73.8268 111.097C80.331 113.691 86.9126 116.453 93.8989 117.434C100.063 118.299 106.287 117.641 112.236 115.864C118.374 114.031 124.173 111.149 129.661 107.879C135.382 104.472 140.823 100.612 146.199 96.693C146.883 96.1939 147.568 95.6906 148.252 95.1915C149.251 94.4601 148.653 93.0231 147.421 93.2253C141.869 94.1374 136.277 92.7865 131.077 90.8935C125.52 88.8714 120.225 86.1997 114.711 84.0657C109.382 82.0006 103.679 80.3958 97.9064 80.8347C90.6231 81.3854 84.0372 84.9864 77.7483 88.4154C70.861 92.1713 63.978 95.9272 57.0908 99.6874C56.2127 100.165 55.3388 100.643 54.4607 101.124C53.2555 101.774 54.3402 103.633 55.5584 102.97Z" fill="black"/>
<path d="M83.3316 88.2088C84.3216 87.9291 85.2083 88.3723 86.0176 88.9187C86.9732 89.564 87.7867 90.3944 88.6778 91.1214C90.6062 92.6961 92.8532 93.8448 95.268 94.4686C99.9944 95.6862 105.087 94.8171 109.103 92.0249C111.281 90.5062 113.115 88.5315 114.397 86.1996C115.065 84.9864 113.205 83.8979 112.538 85.1154C110.437 88.9359 106.701 91.7109 102.426 92.5972C97.9411 93.5265 93.1244 92.1583 89.6894 89.1682C87.7695 87.4989 85.5355 85.3521 82.7634 86.1351C81.429 86.5094 81.9928 88.5831 83.3316 88.2088Z" fill="black"/>
<path d="M105.013 36.9234H98.8587L97.4766 40.7551H95.479L101.088 26.0735H102.783L108.403 40.7551H106.415L105.013 36.9234ZM99.4439 35.3302H104.438L101.936 28.4633L99.4439 35.3302Z" fill="black"/>
<path fill-rule="evenodd" clip-rule="evenodd" d="M101.051 26.0197H102.82L108.481 40.8089H106.378L104.975 36.9772H98.8966L97.5144 40.8089H95.4009L101.051 26.0197ZM101.125 26.1273L95.5572 40.7013H97.4388L98.821 36.8696H105.051L106.453 40.7013H108.325L102.746 26.1273H101.125ZM101.936 28.3058L104.515 35.384H99.3671L101.936 28.3058ZM101.936 28.6207L99.5207 35.2764H104.361L101.936 28.6207Z" fill="black"/>
<path d="M155.258 106.96V92.2781H159.404C160.682 92.2781 161.812 92.5605 162.794 93.1252C163.776 93.6898 164.533 94.4932 165.064 95.5351C165.602 96.5771 165.875 97.7737 165.881 99.1249V100.063C165.881 101.447 165.612 102.661 165.074 103.703C164.543 104.745 163.78 105.545 162.784 106.103C161.795 106.661 160.642 106.946 159.324 106.96H155.258ZM157.195 93.8713V105.377H159.233C160.726 105.377 161.886 104.913 162.714 103.985C163.548 103.057 163.965 101.736 163.965 100.022V99.1652C163.965 97.498 163.571 96.204 162.784 95.283C162.004 94.3553 160.894 93.8848 159.455 93.8713H157.195Z" fill="black"/>
<path d="M45.8088 98.6089C45.6272 100.162 45.0521 101.362 44.0836 102.209C43.1218 103.049 41.8405 103.469 40.2398 103.469C38.5045 103.469 37.1123 102.847 36.063 101.604C35.0205 100.36 34.4993 98.6963 34.4993 96.6124V95.2007C34.4993 93.8361 34.7414 92.6361 35.2257 91.6009C35.7166 90.5656 36.4094 89.7724 37.3039 89.2212C38.1985 88.6632 39.2343 88.3842 40.4113 88.3842C41.9717 88.3842 43.2227 88.8212 44.1643 89.6951C45.1059 90.5623 45.6541 91.7656 45.8088 93.305H43.8616C43.6935 92.1353 43.3269 91.2883 42.762 90.7639C42.2037 90.2396 41.4202 89.9774 40.4113 89.9774C39.1737 89.9774 38.2018 90.4345 37.4956 91.3488C36.7961 92.263 36.4464 93.5638 36.4464 95.2511V96.6729C36.4464 98.2661 36.7793 99.5332 37.4452 100.474C38.111 101.416 39.0426 101.886 40.2398 101.886C41.3159 101.886 42.1398 101.644 42.7115 101.16C43.2899 100.669 43.6733 99.8189 43.8616 98.6089H45.8088Z" fill="black"/>
<path d="M54.7231 140.741H52.786V126.059H54.7231V140.741Z" fill="black"/>
<path d="M138.598 134.213L143.2 145.693L147.802 134.213H150.21V148.283H148.353V142.804L148.527 136.89L143.906 148.283H142.485L137.873 136.919L138.057 142.804V148.283H136.2V134.213H138.598Z" fill="black"/>
<path d="M96.076 156.706C96.076 155.682 96.2759 154.761 96.6755 153.943C97.0816 153.125 97.6423 152.493 98.3578 152.049C99.0797 151.604 99.9015 151.382 100.823 151.382C102.248 151.382 103.398 151.875 104.275 152.86C105.158 153.846 105.599 155.157 105.599 156.793V156.919C105.599 157.937 105.403 158.852 105.01 159.663C104.623 160.469 104.065 161.097 103.337 161.548C102.615 161.999 101.784 162.224 100.843 162.224C99.4245 162.224 98.274 161.731 97.391 160.746C96.5144 159.76 96.076 158.455 96.076 156.832V156.706ZM97.8744 156.919C97.8744 158.079 98.1419 159.01 98.6768 159.712C99.2183 160.414 99.9402 160.765 100.843 160.765C101.751 160.765 102.473 160.411 103.008 159.702C103.543 158.987 103.811 157.988 103.811 156.706C103.811 155.56 103.537 154.632 102.989 153.923C102.448 153.208 101.726 152.851 100.823 152.851C99.9402 152.851 99.2279 153.202 98.6865 153.904C98.1451 154.606 97.8744 155.611 97.8744 156.919Z" fill="black"/>
<path fill-rule="evenodd" clip-rule="evenodd" d="M100.823 151.597C99.9382 151.597 99.1562 151.81 98.4712 152.232C97.793 152.653 97.2586 153.253 96.8689 154.038C96.4855 154.823 96.2915 155.711 96.2915 156.706V156.832C96.2915 158.415 96.718 159.665 97.5518 160.603C98.3908 161.539 99.4812 162.009 100.843 162.009C101.748 162.009 102.539 161.793 103.223 161.365L103.224 161.365C103.916 160.937 104.446 160.34 104.816 159.57L104.816 159.57C105.193 158.791 105.384 157.909 105.384 156.919V156.793C105.384 155.197 104.955 153.941 104.115 153.004L104.114 153.003C103.282 152.068 102.192 151.597 100.823 151.597ZM98.2452 151.866C99.0039 151.398 99.8655 151.167 100.823 151.167C102.304 151.167 103.515 151.682 104.436 152.717C105.362 153.751 105.815 155.117 105.815 156.793V156.919C105.815 157.965 105.613 158.912 105.204 159.757C104.8 160.597 104.216 161.257 103.451 161.73C103.451 161.731 103.451 161.731 103.451 161.731L103.337 161.548L103.451 161.73C103.451 161.73 103.451 161.73 103.451 161.73C102.691 162.205 101.82 162.439 100.843 162.439C99.3685 162.439 98.1579 161.924 97.2309 160.889L97.2303 160.889C96.3111 159.855 95.8611 158.496 95.8611 156.832V156.706C95.8611 155.654 96.0667 154.699 96.4823 153.848L96.4829 153.847C96.9052 152.996 97.4921 152.333 98.2444 151.866L98.2452 151.866ZM98.5163 153.773C99.0983 153.018 99.8733 152.636 100.823 152.636C101.792 152.636 102.578 153.024 103.16 153.793C103.744 154.548 104.026 155.526 104.026 156.706C104.026 158.015 103.754 159.066 103.181 159.831L103.18 159.832C102.604 160.596 101.817 160.98 100.843 160.98C99.875 160.98 99.0896 160.599 98.5066 159.843L98.5059 159.842C97.9345 159.092 97.6594 158.111 97.6594 156.919C97.6594 155.585 97.9349 154.527 98.5163 153.773ZM100.823 153.066C100.008 153.066 99.3581 153.386 98.8573 154.035C98.3558 154.686 98.0899 155.637 98.0899 156.919C98.0899 158.046 98.3496 158.926 98.8479 159.581C99.3477 160.229 100.006 160.55 100.843 160.55C101.686 160.55 102.343 160.226 102.836 159.573C103.334 158.908 103.596 157.961 103.596 156.706C103.596 155.594 103.33 154.716 102.819 154.055L102.818 154.053L102.818 154.053C102.317 153.392 101.659 153.066 100.823 153.066Z" fill="black"/>
</g>
<defs>
<clipPath id="clip0_501_29885">
<rect width="200" height="200" fill="white"/>
</clipPath>
</defs>
</svg>

<svg xmlns="http://www.w3.org/2000/svg" width="200" height="200" fill="none"><g fill="#000" clip-path="url(#a)"><path fill-rule="evenodd" d="M100.67 52.861c-25.984 0-47.048 21.054-47.048 47.024s21.064 47.025 47.048 47.025 47.049-21.054 47.049-47.025c0-25.97-21.065-47.024-47.049-47.024M51.9 99.885c0-26.921 21.835-48.745 48.77-48.745s48.771 21.824 48.771 48.745-21.836 48.745-48.771 48.745S51.9 126.806 51.9 99.885" clip-rule="evenodd"/><path fill-rule="evenodd" d="M101.686.453 87.128 53.767l-1.661-.453L100.025 0z" clip-rule="evenodd"/><path fill-rule="evenodd" d="m101.311 0 14.558 53.314-1.661.453L99.65.453zM99.65 198.741l14.558-53.314 1.661.453-14.558 53.314z" clip-rule="evenodd"/><path fill-rule="evenodd" d="M100.025 199.194 85.467 145.88l1.661-.453 14.558 53.314zM1.952 96.883l53.342 14.55-.454 1.66L1.5 98.543z" clip-rule="evenodd"/><path fill-rule="evenodd" d="m1.499 97.257 53.341-14.55.454 1.66-53.342 14.55zM199.546 102.608l-53.342-14.546.454-1.66 53.341 14.546z" clip-rule="evenodd"/><path fill-rule="evenodd" d="m199.999 102.238-53.341 14.547-.454-1.661 53.342-14.546zM33.822 26.98 58.88 76.24l-1.535.78L32.287 27.76z" clip-rule="evenodd"/><path fill-rule="evenodd" d="M33.242 26.894 79.86 56.61l-.926 1.45-46.618-29.715zM176.077 35.476 126.308 59.55l-.75-1.549 49.769-24.076z" clip-rule="evenodd"/><path fill-rule="evenodd" d="m176.174 34.898-30.64 46.005-1.433-.954 30.639-46.004zM168.287 172.295l-26.408-48.551 1.513-.822 26.408 48.551z" clip-rule="evenodd"/><path fill-rule="evenodd" d="m168.872 172.364-47.424-28.412.886-1.476 47.423 28.412zM22.434 161.192l50.647-22.178.691 1.576-50.647 22.179z" clip-rule="evenodd"/><path fill-rule="evenodd" d="m22.319 161.765 32.353-44.813 1.396 1.007-32.353 44.813z" clip-rule="evenodd"/><path fill-rule="evenodd" d="M99.887 1.836c-54.214 0-98.165 43.974-98.165 98.221s43.95 98.222 98.165 98.222c54.214 0 98.165-43.974 98.165-98.222S154.101 1.836 99.887 1.836M0 100.057C0 44.861 44.72.115 99.887.115c55.166 0 99.886 44.746 99.886 99.942S155.053 200 99.887 200C44.72 200 0 155.253 0 100.057" clip-rule="evenodd"/><path d="M55.558 102.97c6.888-3.76 13.78-7.516 20.666-11.276 6.32-3.446 12.776-7.396 20.004-8.528 5.634-.881 11.308.525 16.576 2.457 5.553 2.04 10.848 4.711 16.371 6.837 5.277 2.026 10.937 3.592 16.641 3.11.732-.06 1.463-.16 2.187-.275-.276-.654-.551-1.312-.831-1.966-5.325 3.902-10.675 7.778-16.28 11.276-5.342 3.334-10.938 6.363-16.9 8.432-5.643 1.958-11.587 3.008-17.57 2.53-6.875-.55-13.422-3.123-19.771-5.649-6.672-2.654-13.336-5.317-20.008-7.976-.826-.331-1.653-.658-2.48-.99-.537-.215-1.183.237-1.325.753-.168.611.21 1.106.753 1.325l20.236 8.067c6.504 2.594 13.086 5.356 20.072 6.337 6.164.865 12.388.207 18.337-1.57 6.138-1.833 11.937-4.715 17.425-7.985 5.721-3.407 11.162-7.267 16.538-11.186l2.053-1.501c.999-.732.401-2.169-.831-1.967-5.552.912-11.144-.438-16.344-2.331-5.557-2.023-10.852-4.694-16.366-6.828-5.329-2.065-11.032-3.67-16.805-3.231-7.283.55-13.869 4.151-20.158 7.58a48292 48292 0 0 0-23.287 12.709c-1.206.65-.12 2.509 1.097 1.846"/><path d="M83.332 88.209c.99-.28 1.876.163 2.686.71.955.645 1.769 1.475 2.66 2.202a17.25 17.25 0 0 0 6.59 3.348c4.726 1.217 9.819.348 13.835-2.444 2.178-1.519 4.012-3.494 5.294-5.825.668-1.214-1.192-2.302-1.859-1.085-2.101 3.82-5.837 6.596-10.112 7.482-4.485.93-9.302-.439-12.737-3.429-1.92-1.67-4.153-3.816-6.926-3.033-1.334.374-.77 2.448.569 2.074M105.013 36.923h-6.154l-1.382 3.832h-1.998l5.609-14.682h1.695l5.62 14.682h-1.988zm-5.57-1.593h4.995l-2.502-6.867z"/><path fill-rule="evenodd" d="M101.051 26.02h1.769l5.661 14.789h-2.103l-1.403-3.832h-6.078l-1.383 3.832h-2.113zm.074.107-5.568 14.574h1.882l1.382-3.831h6.23l1.402 3.831h1.872l-5.579-14.574zm.811 2.179 2.579 7.078h-5.148zm0 .315-2.415 6.655h4.84z" clip-rule="evenodd"/><path d="M155.258 106.96V92.278h4.146q1.917 0 3.39.847t2.27 2.41q.808 1.563.817 3.59v.938q0 2.076-.807 3.64a5.6 5.6 0 0 1-2.29 2.4q-1.483.837-3.46.857zm1.937-13.089v11.506h2.038q2.24 0 3.481-1.392 1.251-1.392 1.251-3.963v-.857q0-2.5-1.181-3.882-1.17-1.391-3.329-1.412zM45.809 98.609q-.273 2.33-1.725 3.6-1.444 1.26-3.844 1.26-2.604 0-4.177-1.865-1.564-1.866-1.564-4.992v-1.411q0-2.047.727-3.6.735-1.553 2.078-2.38 1.342-.837 3.107-.837 2.34 0 3.753 1.311 1.413 1.3 1.645 3.61h-1.947q-.253-1.755-1.1-2.541-.837-.787-2.35-.787-1.857 0-2.916 1.372-1.05 1.371-1.05 3.902v1.422q0 2.39 1 3.801.998 1.412 2.794 1.412 1.614 0 2.471-.726.868-.736 1.15-2.551zM54.723 140.741h-1.937v-14.682h1.937zM138.598 134.213l4.602 11.48 4.602-11.48h2.408v14.07h-1.857v-5.479l.174-5.914-4.621 11.393h-1.421l-4.612-11.364.184 5.885v5.479H136.2v-14.07zM96.076 156.706q0-1.536.6-2.763.608-1.227 1.682-1.894 1.083-.667 2.465-.667 2.137 0 3.452 1.478 1.324 1.479 1.324 3.933v.126q0 1.527-.589 2.744a4.4 4.4 0 0 1-1.673 1.885q-1.083.676-2.494.676-2.128 0-3.452-1.478-1.315-1.48-1.315-3.914zm1.798.213q0 1.74.803 2.793.811 1.053 2.166 1.053 1.362 0 2.165-1.063.803-1.073.803-2.996 0-1.72-.822-2.783-.811-1.072-2.166-1.072-1.325 0-2.136 1.053-.813 1.053-.813 3.015"/><path fill-rule="evenodd" d="M100.823 151.597q-1.326.001-2.352.635-1.017.63-1.602 1.806-.576 1.177-.578 2.668v.126c0 1.583.427 2.833 1.26 3.771.84.936 1.93 1.406 3.292 1.406q1.356-.001 2.38-.644h.001a4.2 4.2 0 0 0 1.592-1.795q.567-1.167.568-2.651v-.126c0-1.596-.429-2.852-1.269-3.789l-.001-.001c-.832-.935-1.922-1.406-3.291-1.406m-2.578.269q1.14-.7 2.578-.699c1.481 0 2.692.515 3.613 1.55.926 1.034 1.379 2.4 1.379 4.076v.126q.001 1.57-.611 2.838-.606 1.262-1.753 1.973v.001l-.114-.183.114.182q-1.141.71-2.608.709c-1.475 0-2.685-.515-3.612-1.55-.92-1.034-1.37-2.393-1.37-4.057v-.126q0-1.58.621-2.858v-.001c.423-.851 1.01-1.514 1.762-1.981zm.271 1.907c.582-.755 1.357-1.137 2.307-1.137.969 0 1.755.388 2.337 1.157.584.755.866 1.733.866 2.913 0 1.309-.272 2.36-.845 3.125l-.001.001c-.576.764-1.363 1.148-2.337 1.148-.968 0-1.753-.381-2.336-1.137l-.001-.001c-.572-.75-.847-1.731-.847-2.923 0-1.334.276-2.392.857-3.146m2.307-.707c-.815 0-1.465.32-1.966.969-.501.651-.767 1.602-.767 2.884 0 1.127.26 2.007.758 2.662.5.648 1.158.969 1.995.969.843 0 1.5-.324 1.993-.977.498-.665.76-1.612.76-2.867 0-1.112-.266-1.99-.777-2.651l-.001-.002c-.501-.661-1.159-.987-1.995-.987" clip-rule="evenodd"/></g><defs><clipPath id="a"><path fill="#fff" d="M0 0h200v200H0z"/></clipPath></defs></svg>
